X:1
T: Miss Johnson of Byker's Reel
C:
R:Reel
Q: 232
K:D
M:4/4
L:1/8
|:d|AF ED EB, B,B|AF ED B2 B1/2c1/2d|AF ED EB, B,e|d1/2c1/2B1/2A1/2 dF D1/2D1/2D Dd|
AF ED EB, B,B|AF ED B2 B1/2c1/2d|AF ED EB, B,e|d1/2c1/2B1/2A1/2 dF D1/2D1/2D Df|
d1/2e1/2f1/2g1/2 af ge ef|d1/2e1/2f1/2g1/2 af g2 gb|af df ed Be|d1/2c1/2B1/2A1/2 dF D1/2D1/2D Df|
d1/2e1/2f1/2g1/2 af ge ef|d1/2e1/2f1/2g1/2 af g2 gb|af df ed Be|d1/2c1/2B1/2A1/2 dF D1/2D1/2D D:|
